X:1
T:Quand'havran fin amor
T:Quand'havran fin amor
T:Girolamo Scotto
T:Source : Madrigali a tre voci---Venetia---G.Scotto---1541. Editor : André Vierendeels (01/08/16).
T:Notes : Original clefs : C3, C4, F4 Editorial accidentals above the staff Original note values have been halved Square brackets indicate ligatures "Tertii toni"
T:©
T:©
T:©
T:©
T:©
T:©
C:Girolamo Scotto
Z:©
%%score [ 1 2 3 ]
L:1/8
Q:1/4=109
M:2/2
K:F
V:1 treble-8 nm="Tenor 1" snm="T 1"
V:2 treble-8 nm="Tenor 2" snm="T 2"
V:3 bass nm="Bass" snm="B"
V:1
 A4 d4- | d2 c2 B2 B2 | A8 | A4 d2 c2 | d4 G2 c2- | cB A4 G2 | A2 c2 c2 d2 | e2 f3 e d2- | %8
w: Quand' ha-|* vran fin' a-|mor|gli'af- fan- ni|mie- * *||i, ha- vro ma-|i ben dal cie-|
 dc/B/ c2 d2 f2 | f2 e2 d2 d2 | f2 e2 d3 c | B2 c2 F2 f2- | fe/d/ e2 f4 | c8 | f4 e4 | d6 B2 | %16
w: * * * * lo, an-|zi ch'io can- g'i|bei pen- sie- *|* ri e'l pe-|* * * * lor,|ma-|don- na|vol ch'io|
 A4 B2 GA | Bc d3 c/B/ c2 | dcBA G2 B2- | BA A4 G2 | A4 z2 B2 | A3 A G2 c2- | cB/A/ B2 c2 G2 | %23
w: pian- * * *||||ga, è|ch'io so- spi- *|* * * * ri, et|
 c2 c2 A2 c2- | c2 B2 c2 B2 | A4 z2 G2 | d2 d2 c2 c2 | _e3 d c2 g2- | g2 f2 g2 d2- | d2 f4 e2 | %30
w: io m'ac- * cor-|* do se- *|co, sich'|son va- gho de|gli mie- i mar-|* ti- ri, O|_ de- sir|
 d2 c2 B2 A2- | A2 G2 A2 G2 | G2 G2 d3 c | B2 A2 c3 B | cdef g2 f2- | f2 e2 d2 c2 | A2 d3 c c2- | %37
w: fol- l'e cie- *|* * co, deh|per- che del' _|_ mio mal _|_ _ _ _ _ m'al-|* le- gro me-||
 c2 B2 c3 d | e2 f2 f2 f2 | c3 d ef g2 | f6 ed | c2 c2 d2 d2 | e2 e2 f3 e | d2 g2 e2 fe | %44
w: |co, fatt' ha spe-|ran- * * * za|il ve- *|lo, al mar- tir|che mi fa _|_ d'e- ter- * *|
 dc B2 A2 c2 | D2 f4 ed | f2 d4 e2 | f2 d3 c/B/ c2 | d4 d4- | d8- | d4 z2 c2 | A6 A2 | A4 A4- | %53
w: |no ge- * *|lo, d'e- ter-|no ge- * * *|* lo,|_|* d'e-|ter- no|ge- lo.|
 A8 |] %54
w: _|
V:2
 z4 D4 | A6 G2 | F2 E2 F4- | F2 E2 F4- | F2 ED E2 F2- | F2 E2 D4 | E2 A2 A2 B2 | G2 d3 c B2- | %8
w: Quand'|ha- vran|fin' a- mor|_ gli'af- fan-|* * * ni mie-||i, ha- vro ma-|i ben dal cie-|
 B2 AG A2 d2 | d2 c2 B2 B2 | A2 A2 B2 F2 | G4 A2 B2 | G4 A4 | A8 | A6 G2 | B4 B2 G2- | %16
w: * * * lo, an-|zi ch'io can g'i|bei pen- sie- *|ri e'l pe-|* lor,|ma-|don- na|vol ch'io pian-|
 G2 F2 G2 E2 | D2 F2 E4 | D4 z2 G2 | G2 z E F2 D2 | E2 F3 E/D/ E2 | F2 F2 E2 E2 | D4 E4 | %23
w: * * ga, _|ch'io pian- *|ga, è|ch'io so- spi- *||ri, è ch'io so-|spi- ri,|
 z4 z2 E2 | F2 D2 E2 G2- | G2 F2 G2 B2 | B2 B2 A2 A2 | c3 B A2 G2 | A4 G4 | z2 A4 E2 | %30
w: et|io m'ac- cor- do|_ se- co, sich'|son va- gho de|gli mie- i mar-|ti- ri,|O de-|
 F2 A2 D2 F2- | F2 ED E4- | E4 z2 D2 | D2 D2 A4- | A2 G2 E2 A2- | AB c2 FGAB | c2 B4 A2- | %37
w: sir fol- l'e cie-|* * * co,|_ deh|per- che del'|_ mio mal m'al-|* * * le- * * *|gro me- *|
 A2 GF E2 A2 | A2 A2 B2 A2- | AGAB c2 G2 | B2 A4 G2 | A4 B3 A | G4 z2 F2 | G2 G2 A2 A2 | %44
w: * * * co, fatt'|ha spe- ran- *|* * * * za il|ve- * *||lo, al|mar- tir che mi|
 B2 G2 F2 E2 | D2 d4 cB | A2 B4 AG | F4 G4 | A4 z2 A2 | B2 A2 B4 | A4 z2 A2 | F6 E2 | F4 E4- | %53
w: fa d'e- ter- *|no ge- * *|||lo, d'e-|ter- no ge-|lo, d'e-|ter- no|ge- lo.|
 E8 |] %54
w: _|
V:3
 z8 | z8 | A,,4 D,4- | D,2 C,2 B,,2 A,,2 | B,,2 B,,2 C,2 F,,G,, | A,,B,,C,A,, B,,4 | %6
w: ||Quand' ha-|* vran fin' a-|mor gli'af- fan- ni _|_ _ _ _ mie-|
 A,,2 F,2 F,2 B,,2 | C,2 B,,3 C, D,2 |"^b" E,4 D,4 | z4 z2 D,2 | D,2 C,2 B,,2 B,,2 | %11
w: i, ha- vro ma-|i ben dal cie-|* lo,|an-|zi ch'io can- g'i|
"^b""^b" E,2 E,2 D,2 B,,2 | C,4 F,,4 | F,8 | D,4 C,4 | B,,2 G,,3 A,,B,,C, | D,4 G,,2 C,2 | %17
w: bei pen- sie- ri'e'l|pe- lor,|ma-|don- na|vol ch'io pian- * *|* * ga,|
 z2 D,2 A,,4 | B,,2 G,,2 C,2 z G,, | C,4 B,,2 B,,2 | A,,2 A,,2 G,,4 | F,,4 C,4 | z2 G,,2 C,3 D, | %23
w: ch'io pian-|* * ga, è|ch'io so- spi-|ri, so- spi-|* ri,|et io m'ac-|
 E,2 F,3 E,/D,/ C,2 | D,4 C,2 G,,2 |"^b""^b" D,2 D,2 E,2 E,2 | B,,C,D,E, F,4 | C,4 F,2 _E,2 | %28
w: cor- do _ _ _|se- co, sich'|son va- gho de|gli _ _ _ _|mie- i mar-|
 D,4 G,,4- | G,,2 D,4 C,2 | B,,2 A,,2 G,,2 A,,2 | B,,4 A,,2 C,2 | C,2 C,2 B,,3 A,, | %33
w: ti- ri,|_ O de-|sir fol- l'e cie-|* co, deh|per- che del' _|
 G,,2 F,,4 F,2- | F,2 C,4 D,2 | A,,4 B,,2 F,2- | F,2 D,2 E,2 F,2 | D,4 C,4 | A,,2 D,2 D,2 D,2 | %39
w: _ mio mal|_ m'al- le-|* gro me-|||co, fatt' ha spe-|
 F,4 C,2 _E,2 | D,3 C, B,,4 | F,4 B,,4 | C,4 F,,4 | z4 z2 F,,2 | G,,2 G,,2 A,,2 A,,2 | %45
w: ran- za il|ve- * *|lo, al|mar- tir,|al|mar- tir che mi|
 B,,3 C, D,4- | D,2 G,,2 B,,2 C,2 |"^b" D,4 E,4 | D,4 z2 D,2 | G,2 F,2 G,4 | D,4 z2 A,,2 | %51
w: fa _ _|_ d'e- ter- no|ge- *|lo, d'e-|ter- no ge-|lo, d'e-|
 D,6 C,2 | D,4 A,,4- | A,,8 |] %54
w: ter- no|ge- lo.|_|

